X: 1
T: Julestemning [F]
T: Sikken voldsom tr\aengsel og alarm
Z: John Chambers <jc@trillian.mit.edu>
M: 3/4
L: 1/8
K: F
| "F"FG Ac "C7"BG \
| "F"c2 A2 f2 \
| FG Ac "C7"BG \
| "F"A2 "C"G2 "F"F2 \
| "F"FG Ac "C7"BG \
| "F"c2 A2 "Dm"f2 \
| "C"ed cG "G7"=BG \
| "C"c2 G2 C2 ||
|| "C7"BA Gd cB \
| "F"A2 f2 c2 \
| "C7"BA Gd cB \
| "F"A2 f2 c2 \
| "F7"Ac BA GF \
| "Bb"B2 c2 d2 \
| "F"cf Ac FA \
| "C7"c2 G>A "F"F2 ||
|| "F".F2 .A2 .c2 \
| "Dm".f2 "Am".e2 "Bb"d2 \
| "F"cc "Bb"dd "Gm"BB \
| "C7"A2 B2 G2 \
| "F".F2 .A2 .c2 \
| "Dm".f2 "Am".e2 "Bb"d2 \
| "F"cc "Bb"dd "Gm"BB \
| "C7"A2 B2 G2 \
| "F"F2 A2 c2 \
| f6 |]
